X: 21438
T: Kevin Keegan's
R: waltz
M: 3/4
K: Eminor
B,D|:E2F G2F|E2D B,2 D|G2F G2A|B4 GA|B2 e2 d>e|
B>A B2 A2|1 G2 E D2B,|D4 B,D:|2 G2 E E2 D|E4 Bd||
e2 f e2 d|B>A B2 A2|G2 F G2 A|B4 GA|B2e d2e|
B2 A B2 A|G2 E D2 B,|D4 B,D|E2F G2F|E2D B,2 D|
G2F G2A|B4 GA|B2 e2 d>e|B>A B2 A2|G2 E E2 D|E4 B,D||

